app/images/dist/icons/sale.svg

<svg width="30" height="30" viewBox="0 0 30 30" fill="none" xmlns="http://www.w3.org/2000/svg">
<g clip-path="url(#clip0)">
<path d="M28.6211 15.0011L29.9373 11.5682C30.0816 11.1894 29.9691 10.7601 29.6523 10.5032L26.7987 8.18964L26.2213 4.55802C26.1575 4.15679 25.8425 3.84369 25.4413 3.77994L21.8097 3.20248L19.498 0.347054C19.243 0.0302002 18.8043 -0.0822921 18.4349 0.062073L15.0002 1.38011L11.5673 0.0639479C11.1867 -0.0822922 10.7611 0.0339499 10.5042 0.348928L8.19062 3.20436L4.55899 3.78182C4.15964 3.84556 3.84467 4.16054 3.78092 4.55989L3.20346 8.19152L0.348029 10.5051C0.0330509 10.7601 -0.0813163 11.1894 0.0630488 11.5682L1.37921 15.0011L0.0630488 18.4339C-0.0831912 18.8127 0.0330509 19.242 0.348029 19.497L3.20346 21.8087L3.78092 25.4403C3.84467 25.8416 4.15777 26.1565 4.55899 26.2203L8.19062 26.7977L10.5042 29.6513C10.7611 29.97 11.1904 30.0825 11.5691 29.9363L15.0002 28.622L18.433 29.9382C18.5418 29.9794 18.6543 30 18.7686 30C19.0443 30 19.3161 29.8782 19.498 29.6513L21.8097 26.7977L25.4413 26.2203C25.8425 26.1565 26.1575 25.8416 26.2213 25.4403L26.7987 21.8087L29.6523 19.497C29.9691 19.2401 30.0816 18.8127 29.9373 18.4339L28.6211 15.0011Z" fill="#E20613"/>
<path d="M12.188 13.1261C10.6375 13.1261 9.37573 11.8643 9.37573 10.3138C9.37573 8.76325 10.6375 7.50146 12.188 7.50146C13.7386 7.50146 15.0003 8.76325 15.0003 10.3138C15.0003 11.8643 13.7386 13.1261 12.188 13.1261ZM12.188 9.37634C11.6706 9.37634 11.2506 9.79631 11.2506 10.3138C11.2506 10.8312 11.6706 11.2512 12.188 11.2512C12.7055 11.2512 13.1255 10.8312 13.1255 10.3138C13.1255 9.79631 12.7055 9.37634 12.188 9.37634Z" fill="white"/>
<path d="M17.8126 22.5005C16.262 22.5005 15.0002 21.2387 15.0002 19.6882C15.0002 18.1376 16.262 16.8759 17.8126 16.8759C19.3631 16.8759 20.6249 18.1376 20.6249 19.6882C20.6249 21.2387 19.3631 22.5005 17.8126 22.5005ZM17.8126 18.7507C17.297 18.7507 16.8751 19.1726 16.8751 19.6882C16.8751 20.2038 17.297 20.6256 17.8126 20.6256C18.3281 20.6256 18.75 20.2038 18.75 19.6882C18.75 19.1726 18.3281 18.7507 17.8126 18.7507Z" fill="white"/>
<path d="M10.3131 22.5005C10.1237 22.5005 9.93434 22.4443 9.76935 22.3261C9.34751 22.0243 9.25001 21.4393 9.55187 21.0175L18.9262 7.89338C19.2281 7.47153 19.813 7.37404 20.2349 7.67589C20.6567 7.97587 20.7523 8.5627 20.4524 8.98268L11.078 22.1068C10.8924 22.3636 10.6055 22.5005 10.3131 22.5005Z" fill="white"/>
</g>
<defs>
<clipPath id="clip0">
<rect width="30" height="30" fill="white"/>
</clipPath>
</defs>
</svg>

<svg width="30" height="30" fill="none" xmlns="http://www.w3.org/2000/svg"><g clip-path="url(#clip0)"><path d="M28.621 15.001l1.316-3.433a.939.939 0 00-.285-1.065L26.8 8.19l-.578-3.632a.937.937 0 00-.78-.778l-3.631-.578L19.498.347a.939.939 0 00-1.063-.285L15 1.38 11.567.064a.935.935 0 00-1.063.285L8.191 3.204l-3.632.578a.94.94 0 00-.778.778l-.578 3.632-2.855 2.313a.938.938 0 00-.285 1.063l1.316 3.433-1.316 3.433a.935.935 0 00.285 1.063l2.855 2.312.578 3.631a.937.937 0 00.778.78l3.632.578 2.313 2.853a.933.933 0 001.065.285L15 28.622l3.433 1.316a.943.943 0 001.065-.287l2.312-2.853 3.631-.578a.94.94 0 00.78-.78l.578-3.631 2.853-2.312a.936.936 0 00.285-1.063L28.621 15z" fill="#E20613"/><path d="M12.188 13.126a2.816 2.816 0 01-2.812-2.812A2.816 2.816 0 0112.188 7.5 2.816 2.816 0 0115 10.314a2.816 2.816 0 01-2.812 2.812zm0-3.75a.938.938 0 100 1.876.938.938 0 000-1.876zM17.813 22.5A2.816 2.816 0 0115 19.688a2.816 2.816 0 012.813-2.812 2.816 2.816 0 012.812 2.812 2.816 2.816 0 01-2.812 2.813zm0-3.75a.94.94 0 00-.938.938.94.94 0 00.938.938.94.94 0 00.937-.938.94.94 0 00-.937-.937zm-7.5 3.75a.937.937 0 01-.761-1.483l9.374-13.124a.937.937 0 111.526 1.09l-9.374 13.124a.942.942 0 01-.765.393z" fill="#fff"/></g><defs><clipPath id="clip0"><path fill="#fff" d="M0 0h30v30H0z"/></clipPath></defs></svg>
